;START_OF_HEADER
;HEADER_VERSION:0.1
;FLAVOR:Griffin
;GENERATOR.NAME:Cura_SteamEngine
;GENERATOR.VERSION:4.13.0
;GENERATOR.BUILD_DATE:2022-01-11
;TARGET_MACHINE.NAME:Ultimaker S3
;EXTRUDER_TRAIN.0.INITIAL_TEMPERATURE:200
;EXTRUDER_TRAIN.0.MATERIAL.VOLUME_USED:10711
;EXTRUDER_TRAIN.0.MATERIAL.GUID:506c9f0d-e3aa-4bd4-b2d2-23e2425b1aa9
;EXTRUDER_TRAIN.0.NOZZLE.DIAMETER:0.4
;EXTRUDER_TRAIN.0.NOZZLE.NAME:AA 0.4
;BUILD_PLATE.TYPE:glass
;BUILD_PLATE.INITIAL_TEMPERATURE:60
;PRINT.TIME:10302
;PRINT.GROUPS:1
;PRINT.SIZE.MIN.X:73.06
;PRINT.SIZE.MIN.Y:43.06
;PRINT.SIZE.MIN.Z:0.2
;PRINT.SIZE.MAX.X:156.94
;PRINT.SIZE.MAX.Y:146.939
;PRINT.SIZE.MAX.Z:30.5
;END_OF_HEADER
;Generated with Cura_SteamEngine 4.13.0
T0
M82 ;absolute extrusion mode

G92 E0
M109 S200
G280 S1
G0 Z20.001
G1 F1500 E-6.5
;LAYER_COUNT:304
;LAYER:0
M107
M204 S625
M205 X8.33 Y8.33
G0 F6000 X153.01 Y144.661 Z0.2
M204 S500
M205 X5 Y5
;TYPE:SKIRT
G1 F1500 E0
G1 F1200 X151.713 Y145.528 E0.02348
G1 X151.105 Y145.868 E0.03396
G1 X150.282 Y146.215 E0.0474
G1 X148.977 Y146.64 E0.06805
G1 X148.039 Y146.811 E0.0824
G1 X146.505 Y146.939 E0.10557
G1 X83.482 Y146.939 E1.05396
G1 X81.948 Y146.81 E1.07713
G1 X80.902 Y146.609 E1.09316
G1 X79.718 Y146.215 E1.11194
G1 X78.871 Y145.856 E1.12578
G1 X77.641 Y145.123 E1.14733
G1 X76.97 Y144.645 E1.15973
G1 X75.867 Y143.601 E1.18258
G1 X75.31 Y142.974 E1.1952
G1 X74.475 Y141.72 E1.21787
G1 X73.983 Y140.789 E1.23372
G1 X73.537 Y139.571 E1.25324
G1 X73.353 Y138.95 E1.26298
G1 X73.187 Y138.028 E1.27708
G1 X73.06 Y136.494 E1.30025
G1 X73.061 Y53.494 E2.54927
G1 X73.187 Y51.969 E2.57229
G1 X73.37 Y50.98 E2.58743
G1 X73.782 Y49.724 E2.60732
G1 X73.983 Y49.211 E2.61561
G1 X74.475 Y48.28 E2.63146
G1 X75.31 Y47.026 E2.65413
G1 X76.397 Y45.869 E2.67802
G1 X76.99 Y45.339 E2.68999
G1 X78.287 Y44.472 E2.71346
G1 X78.895 Y44.132 E2.72395
G1 X79.718 Y43.785 E2.73739
G1 X81.023 Y43.36 E2.75804
G1 X81.966 Y43.189 E2.77246
G1 X83.509 Y43.06 E2.79576
G1 X146.532 Y43.062 E3.74416
G1 X148.057 Y43.191 E3.76719
G1 X149.098 Y43.391 E3.78315
G1 X150.276 Y43.782 E3.80182
G1 X150.789 Y43.983 E3.81011
G1 X151.72 Y44.475 E3.82596
G1 X152.974 Y45.31 E3.84863
G1 X154.131 Y46.397 E3.87252
G1 X154.661 Y46.99 E3.88449
G1 X155.528 Y48.287 E3.90797
G1 X155.868 Y48.895 E3.91845
G1 X156.214 Y49.715 E3.93184
G1 X156.64 Y51.022 E3.95253
G1 X156.811 Y51.962 E3.96691
G1 X156.94 Y53.505 E3.99021
G1 X156.938 Y136.532 E5.23964
G1 X156.81 Y138.048 E5.26253
G1 X156.641 Y138.974 E5.2767
G1 X156.218 Y140.276 E5.2973
G1 X156.017 Y140.789 E5.30559
G1 X155.525 Y141.72 E5.32143
G1 X154.69 Y142.974 E5.34411
G1 X153.603 Y144.131 E5.368
G1 X153.01 Y144.661 E5.37996
M204 S625
M205 X8.33 Y8.33
G0 F6000 X152.71 Y144.286
M204 S500
M205 X5 Y5
G1 F1200 X151.458 Y145.121 E5.40261
G1 X150.89 Y145.439 E5.41241
G1 X150.125 Y145.762 E5.4249
G1 X148.861 Y146.175 E5.44491
G1 X147.985 Y146.334 E5.45831
G1 X146.505 Y146.459 E5.48066
G1 X83.482 Y146.459 E6.42906
G1 X82.002 Y146.333 E6.45141
G1 X81.006 Y146.14 E6.46668
G1 X79.875 Y145.762 E6.48462
G1 X79.086 Y145.427 E6.49752
G1 X77.896 Y144.716 E6.51838
G1 X77.27 Y144.27 E6.52995
G1 X76.206 Y143.262 E6.55201
G1 X75.687 Y142.676 E6.56379
G1 X74.881 Y141.464 E6.58569
G1 X74.413 Y140.575 E6.60081
G1 X73.99 Y139.413 E6.61942
G1 X73.818 Y138.834 E6.62851
G1 X73.664 Y137.975 E6.64164
G1 X73.54 Y136.494 E6.664
G1 X73.541 Y53.494 E7.91303
G1 X73.665 Y52.022 E7.93526
G1 X73.841 Y51.078 E7.94971
G1 X74.235 Y49.882 E7.96866
G1 X74.423 Y49.402 E7.97641
G1 X74.881 Y48.536 E7.99116
G1 X75.687 Y47.324 E8.01306
G1 X76.736 Y46.208 E8.03611
G1 X77.29 Y45.714 E8.04728
G1 X78.542 Y44.879 E8.06992
G1 X79.11 Y44.561 E8.07972
G1 X79.875 Y44.238 E8.09222
G1 X81.139 Y43.825 E8.11223
G1 X82.019 Y43.666 E8.12568
G1 X83.509 Y43.54 E8.14819
G1 X146.532 Y43.542 E9.09658
G1 X148.003 Y43.668 E9.1188
G1 X148.994 Y43.86 E9.13399
G1 X150.118 Y44.235 E9.15182
G1 X150.598 Y44.423 E9.15958
G1 X151.464 Y44.881 E9.17432
G1 X152.676 Y45.687 E9.19623
G1 X153.792 Y46.736 E9.21927
G1 X154.286 Y47.29 E9.23044
G1 X155.121 Y48.542 E9.25309
G1 X155.439 Y49.11 E9.26289
G1 X156.006 Y50.575 E9.28653
G1 X156.181 Y51.162 E9.29574
G1 X156.334 Y52.016 E9.3088
G1 X156.46 Y53.505 E9.33129
G1 X156.458 Y136.532 E10.58071
G1 X156.334 Y137.994 E10.60279
G1 X156.176 Y138.858 E10.61601
G1 X155.765 Y140.118 E10.63596
G1 X155.577 Y140.598 E10.64371
G1 X155.119 Y141.464 E10.65846
G1 X154.313 Y142.676 E10.68036
G1 X153.264 Y143.792 E10.70341
G1 X152.71 Y144.286 E10.71458
M204 S625
M205 X8.33 Y8.33
G0 F6000 X152.41 Y143.911
M204 S500
M205 X5 Y5
G1 F1200 X151.203 Y144.715 E10.7364
G1 X150.675 Y145.01 E10.7455
G1 X149.264 Y145.554 E10.76826
G1 X148.72 Y145.715 E10.7768
G1 X147.932 Y145.857 E10.78885
G1 X146.505 Y145.979 E10.8104
G1 X83.482 Y145.979 E11.7588
G1 X82.056 Y145.856 E11.78034
G1 X81.132 Y145.677 E11.7945
G1 X80.033 Y145.309 E11.81194
G1 X79.301 Y144.998 E11.82391
G1 X78.151 Y144.31 E11.84407
G1 X77.57 Y143.895 E11.85482
G1 X76.545 Y142.923 E11.87608
G1 X76.064 Y142.379 E11.887
G1 X75.287 Y141.209 E11.90814
G1 X74.854 Y140.383 E11.92217
G1 X74.443 Y139.256 E11.94023
G1 X74.284 Y138.717 E11.94868
G1 X74.141 Y137.922 E11.96084
G1 X74.02 Y136.494 E11.9824
G1 X74.021 Y53.494 E13.23143
G1 X74.142 Y52.075 E13.25286
G1 X74.305 Y51.199 E13.26627
G1 X74.688 Y50.039 E13.28465
G1 X74.864 Y49.594 E13.29185
G1 X75.287 Y48.791 E13.30551
G1 X76.064 Y47.621 E13.32664
G1 X77.075 Y46.547 E13.34884
G1 X77.59 Y46.089 E13.35921
G1 X78.797 Y45.285 E13.38104
G1 X79.325 Y44.99 E13.39014
G1 X80.736 Y44.446 E13.41289
G1 X81.28 Y44.285 E13.42143
G1 X82.072 Y44.143 E13.43354
G1 X83.509 Y44.02 E13.45524
G1 X146.532 Y44.022 E14.40364
G1 X147.948 Y44.145 E14.42503
G1 X148.868 Y44.323 E14.43913
G1 X149.961 Y44.689 E14.45648
G1 X150.406 Y44.864 E14.46367
G1 X151.209 Y45.287 E14.47733
G1 X152.379 Y46.064 E14.49847
G1 X153.453 Y47.075 E14.52066
G1 X153.911 Y47.59 E14.53103
G1 X154.715 Y48.797 E14.55286
G1 X155.01 Y49.325 E14.56196
G1 X155.553 Y50.733 E14.58467
G1 X155.715 Y51.279 E14.59324
G1 X155.857 Y52.069 E14.60532
G1 X155.98 Y53.505 E14.62701
G1 X155.978 Y136.532 E15.87643
G1 X155.857 Y137.94 E15.8977
G1 X155.71 Y138.741 E15.90996
G1 X155.312 Y139.961 E15.92927
G1 X155.136 Y140.406 E15.93647
G1 X154.713 Y141.209 E15.95013
G1 X153.936 Y142.379 E15.97126
G1 X152.925 Y143.453 E15.99346
G1 X152.41 Y143.911 E16.00383
M204 S625
M205 X8.33 Y8.33
G0 F6000 X152.11 Y143.536
M204 S500
M205 X5 Y5
G1 F1200 X150.948 Y144.308 E16.02482
G1 X150.461 Y144.58 E16.03322
G1 X149.106 Y145.101 E16.05506
G1 X148.604 Y145.249 E16.06294
G1 X147.879 Y145.38 E16.07403
G1 X146.505 Y145.499 E16.09478
G1 X83.482 Y145.499 E17.04318
G1 X82.111 Y145.379 E17.06389
G1 X81.259 Y145.213 E17.07695
G1 X80.191 Y144.856 E17.0939
G1 X79.515 Y144.568 E17.10495
G1 X78.406 Y143.903 E17.12441
G1 X77.87 Y143.52 E17.13433
G1 X76.885 Y142.583 E17.15478
G1 X76.44 Y142.081 E17.16488
G1 X75.694 Y140.953 E17.18523
G1 X75.294 Y140.192 E17.19817
G1 X74.897 Y139.098 E17.21568
G1 X74.75 Y138.601 E17.22348
G1 X74.619 Y137.869 E17.23467
G1 X74.5 Y136.494 E17.25544
G1 X74.501 Y53.494 E18.50446
G1 X74.619 Y52.128 E18.52509
G1 X74.77 Y51.321 E18.53745
G1 X75.142 Y50.197 E18.55527
G1 X75.304 Y49.785 E18.56193
G1 X75.694 Y49.047 E18.57449
G1 X76.44 Y47.919 E18.59484
G1 X77.415 Y46.887 E18.6162
G1 X77.89 Y46.464 E18.62578
G1 X79.052 Y45.692 E18.64677
G1 X79.539 Y45.42 E18.65516
G1 X80.894 Y44.899 E18.67701
G1 X81.396 Y44.751 E18.68489
G1 X82.125 Y44.62 E18.69603
G1 X83.509 Y44.5 E18.71694
G1 X146.532 Y44.502 E19.66534
G1 X147.894 Y44.622 E19.68591
G1 X148.741 Y44.787 E19.6989
G1 X149.803 Y45.142 E19.71575
G1 X150.215 Y45.304 E19.72241
G1 X150.953 Y45.694 E19.73497
G1 X152.081 Y46.44 E19.75532
G1 X153.113 Y47.415 E19.77669
G1 X153.536 Y47.89 E19.78626
G1 X154.308 Y49.052 E19.80725
G1 X154.58 Y49.539 E19.81565
G1 X155.1 Y50.891 E19.83744
G1 X155.249 Y51.395 E19.84535
G1 X155.38 Y52.122 E19.85647
G1 X155.5 Y53.505 E19.87736
G1 X155.498 Y136.532 E21.12679
G1 X155.38 Y137.886 E21.14724
G1 X155.244 Y138.625 E21.15855
G1 X154.858 Y139.803 E21.1772
G1 X154.696 Y140.215 E21.18386
G1 X154.306 Y140.953 E21.19642
G1 X153.56 Y142.081 E21.21678
G1 X152.585 Y143.113 E21.23814
G1 X152.11 Y143.536 E21.24771
M204 S625
M205 X8.33 Y8.33
G0 F6000 X151.81 Y143.162
M204 S500
M205 X5 Y5
G1 F1200 X150.693 Y143.901 E21.26787
G1 X150.246 Y144.151 E21.27557
G1 X148.948 Y144.647 E21.29648
G1 X148.487 Y144.784 E21.30372
G1 X147.065 Y144.988 E21.32534
G1 X146.505 Y145.019 E21.33378
G1 X83.482 Y145.019 E22.28218
G1 X82.165 Y144.902 E22.30207
G1 X81.385 Y144.75 E22.31403
G1 X80.349 Y144.402 E22.33048
G1 X79.73 Y144.139 E22.3406
G1 X78.661 Y143.496 E22.35937
G1 X78.17 Y143.146 E22.36845
G1 X77.224 Y142.244 E22.38812
G1 X76.817 Y141.784 E22.39736
G1 X76.1 Y140.698 E22.41694
G1 X75.734 Y140.001 E22.42879
G1 X75.35 Y138.94 E22.44577
G1 X75.215 Y138.484 E22.45293
G1 X75.011 Y137.048 E22.47475
G1 X74.98 Y136.494 E22.4831
G1 X74.981 Y53.494 E23.73212
G1 X75.096 Y52.181 E23.75196
G1 X75.234 Y51.442 E23.76327
G1 X75.595 Y50.355 E23.78051
G1 X75.744 Y49.976 E23.78664
G1 X76.1 Y49.302 E23.79811
G1 X76.817 Y48.216 E23.81769
G1 X77.754 Y47.226 E23.8382
G1 X78.19 Y46.838 E23.84698
G1 X79.307 Y46.099 E23.86714
G1 X79.754 Y45.849 E23.87485
G1 X81.052 Y45.353 E23.89576
G1 X81.513 Y45.216 E23.90299
G1 X82.952 Y45.011 E23.92487
G1 X83.509 Y44.98 E23.93326
G1 X146.532 Y44.982 E24.88166
G1 X147.839 Y45.099 E24.90141
G1 X148.615 Y45.25 E24.9133
G1 X149.646 Y45.595 E24.92966
G1 X150.024 Y45.744 E24.93578
G1 X150.698 Y46.1 E24.94725
G1 X151.784 Y46.817 E24.96683
G1 X152.774 Y47.754 E24.98735
G1 X153.162 Y48.19 E24.99613
G1 X153.901 Y49.307 E25.01628
G1 X154.151 Y49.754 E25.02399
G1 X154.647 Y51.049 E25.04486
G1 X154.784 Y51.512 E25.05212
G1 X154.989 Y52.946 E25.07392
G1 X155.02 Y53.505 E25.08235
G1 X155.018 Y136.532 E26.33178
G1 X154.903 Y137.831 E26.3514
G1 X154.779 Y138.508 E26.36176
G1 X154.405 Y139.645 E26.37977
G1 X154.256 Y140.024 E26.3859
G1 X153.9 Y140.698 E26.39737
G1 X153.183 Y141.784 E26.41695
G1 X152.246 Y142.774 E26.43746
G1 X151.81 Y143.162 E26.44625
M204 S625
M205 X8.33 Y8.33
G0 F6000 X151.511 Y142.787
M204 S500
M205 X5 Y5
G1 F1200 X150.438 Y143.495 E26.46559
G1 X150.031 Y143.722 E26.47261
G1 X148.79 Y144.194 E26.49259
G1 X148.371 Y144.318 E26.49916
G1 X147.012 Y144.511 E26.51982
G1 X146.505 Y144.539 E26.52746
G1 X83.482 Y144.539 E27.47586
G1 X82.219 Y144.425 E27.49494
G1 X81.21 Y144.194 E27.51052
G1 X79.969 Y143.722 E27.5305
G1 X78.916 Y143.09 E27.54898
G1 X78.469 Y142.771 E27.55724
G1 X77.564 Y141.904 E27.5761
G1 X77.194 Y141.487 E27.58449
G1 X76.506 Y140.442 E27.60332
G1 X76.174 Y139.809 E27.61408
G1 X75.804 Y138.783 E27.63049
G1 X75.681 Y138.368 E27.637
G1 X75.488 Y136.996 E27.65785
G1 X75.46 Y136.494 E27.66542
G1 X75.461 Y53.494 E28.91444
G1 X75.573 Y52.234 E28.93347
G1 X75.699 Y51.563 E28.94375
G1 X76.049 Y50.512 E28.96042
G1 X76.184 Y50.168 E28.96598
G1 X76.506 Y49.558 E28.97636
G1 X77.194 Y48.513 E28.99519
G1 X78.094 Y47.566 E29.01485
G1 X78.489 Y47.213 E29.02282
G1 X79.562 Y46.505 E29.04216
G1 X79.969 Y46.278 E29.04918
G1 X81.21 Y45.806 E29.06916
G1 X81.629 Y45.682 E29.07573
G1 X83.005 Y45.488 E29.09664
G1 X83.509 Y45.46 E29.10424
G1 X146.532 Y45.462 E30.05264
G1 X147.785 Y45.575 E30.07157
G1 X148.786 Y45.805 E30.08703
G1 X149.809 Y46.174 E30.10339
G1 X150.442 Y46.506 E30.11415
G1 X151.487 Y47.194 E30.13298
G1 X152.434 Y48.094 E30.15264
G1 X152.787 Y48.489 E30.16061
G1 X153.495 Y49.562 E30.17995
G1 X153.722 Y49.969 E30.18697
G1 X154.193 Y51.207 E30.2069
G1 X154.318 Y51.628 E30.21351
G1 X154.512 Y52.999 E30.23435
G1 X154.54 Y53.505 E30.24197
G1 X154.538 Y136.532 E31.4914
G1 X154.426 Y137.777 E31.51021
G1 X154.313 Y138.392 E31.51962
G1 X153.951 Y139.488 E31.53699
G1 X153.816 Y139.832 E31.54255
G1 X153.494 Y140.442 E31.55293
G1 X152.806 Y141.487 E31.57176
G1 X151.906 Y142.434 E31.59142
G1 X151.511 Y142.787 E31.59939
M204 S625
M205 X8.33 Y8.33
G0 F6000 X151.211 Y142.412
M204 S500
M205 X5 Y5
G1 F1200 X150.183 Y143.088 E31.6179
G1 X149.817 Y143.292 E31.62421
G1 X148.632 Y143.741 E31.64328
G1 X147.718 Y143.949 E31.65739
G1 X146.505 Y144.059 E31.67571
G1 X83.482 Y144.059 E32.62411
G1 X82.273 Y143.948 E32.64238
G1 X81.368 Y143.741 E32.65635
G1 X80.183 Y143.292 E32.67542
G1 X79.171 Y142.683 E32.6932
G1 X78.769 Y142.396 E32.70063
G1 X77.903 Y141.565 E32.71869
G1 X77.571 Y141.189 E32.72624
G1 X76.912 Y140.186 E32.7443
G1 X76.502 Y139.33 E32.75858
G1 X76.153 Y138.276 E32.77529
G1 X75.965 Y136.943 E32.79555
G1 X75.94 Y136.494 E32.80232
G1 X75.941 Y53.494 E34.05134
G1 X76.05 Y52.287 E34.06957
G1 X76.257 Y51.375 E34.08365
G1 X76.614 Y50.382 E34.09953
G1 X76.912 Y49.814 E34.10918
G1 X77.571 Y48.811 E34.12724
G1 X78.433 Y47.905 E34.14606
G1 X78.789 Y47.588 E34.15323
G1 X79.817 Y46.912 E34.17175
G1 X80.183 Y46.708 E34.17805
G1 X81.368 Y46.259 E34.19712
G1 X81.745 Y46.148 E34.20303
G1 X83.058 Y45.965 E34.22298
G1 X83.509 Y45.94 E34.22978
G1 X146.532 Y45.942 E35.17818
G1 X147.73 Y46.052 E35.19628
G1 X148.629 Y46.258 E35.21016
G1 X149.618 Y46.614 E35.22598
G1 X150.186 Y46.912 E35.23563
G1 X151.189 Y47.571 E35.25369
G1 X152.095 Y48.433 E35.27251
G1 X152.412 Y48.789 E35.27969
G1 X153.088 Y49.817 E35.2982
G1 X153.292 Y50.183 E35.30451
G1 X153.74 Y51.366 E35.32354
G1 X153.852 Y51.744 E35.32947
G1 X154.035 Y53.053 E35.34936
G1 X154.06 Y53.505 E35.35618
G1 X154.058 Y136.532 E36.6056
G1 X153.949 Y137.723 E36.6236
G1 X153.743 Y138.625 E36.63752
G1 X153.386 Y139.618 E36.6534
G1 X153.088 Y140.186 E36.66306
G1 X152.429 Y141.189 E36.68112
G1 X151.567 Y142.095 E36.69994
G1 X151.211 Y142.412 E36.70711
M204 S625
M205 X8.33 Y8.33
G0 F6000 X151.228 Y141.756
M204 S500
M205 X5 Y5
G1 F1200 X150.574 Y142.276 E36.71968
G1 X149.626 Y142.851 E36.73637
G1 X148.474 Y143.287 E36.7549
G1 X147.665 Y143.472 E36.76739
G1 X146.505 Y143.579 E36.78492
G1 X83.482 Y143.579 E37.73332
G1 X82.327 Y143.471 E37.75078
G1 X81.526 Y143.287 E37.76314
G1 X80.398 Y142.863 E37.78128
G1 X79.426 Y142.276 E37.79837
G1 X78.772 Y141.756 E37.81094
G1 X77.962 Y140.911 E37.82855
G1 X77.319 Y139.931 E37.84619
G1 X76.955 Y139.173 E37.85885
G1 X76.618 Y138.159 E37.87493
G1 X76.442 Y136.89 E37.89421
G1 X76.42 Y136.494 E37.90017
G1 X76.421 Y53.494 E39.14919
G1 X76.527 Y52.34 E39.16663
G1 X76.71 Y51.532 E39.1791
G1 X77.055 Y50.574 E39.19442
G1 X77.319 Y50.069 E39.203
G1 X77.947 Y49.108 E39.22027
G1 X78.772 Y48.244 E39.23825
G1 X79.426 Y47.724 E39.25083
G1 X80.374 Y47.149 E39.26751
G1 X81.526 Y46.713 E39.28605
G1 X82.337 Y46.528 E39.29856
G1 X83.509 Y46.42 E39.31628
G1 X146.532 Y46.422 E40.26467
G1 X147.676 Y46.529 E40.28196
G1 X148.471 Y46.712 E40.29424
G1 X149.426 Y47.055 E40.30951
G1 X149.931 Y47.319 E40.31809
G1 X150.892 Y47.947 E40.33536
G1 X151.756 Y48.772 E40.35334
G1 X152.276 Y49.426 E40.36591
G1 X152.851 Y50.374 E40.3826
G1 X153.287 Y51.524 E40.4011
G1 X153.472 Y52.335 E40.41362
G1 X153.58 Y53.505 E40.4313
G1 X153.578 Y136.532 E41.68073
G1 X153.472 Y137.669 E41.69792
G1 X153.29 Y138.468 E41.71025
G1 X152.945 Y139.426 E41.72557
G1 X152.681 Y139.931 E41.73415
G1 X152.053 Y140.892 E41.75142
G1 X151.228 Y141.756 E41.7694
M204 S625
M205 X8.33 Y8.33
G0 F6000 X150.631 Y141.646
M204 S500
M205 X5 Y5
G1 F1200 X149.673 Y142.274 E41.78664
G1 X149.019 Y142.589 E41.79756
G1 X148.046 Y142.915 E41.813
G1 X146.852 Y143.08 E41.83114
G1 X146.505 Y143.099 E41.83637
G1 X83.482 Y143.099 E42.78477
G1 X82.381 Y142.994 E42.80141
G1 X81.684 Y142.834 E42.81217
G1 X80.613 Y142.434 E42.82938
G1 X79.681 Y141.869 E42.84578
G1 X79.112 Y141.416 E42.85672
G1 X78.339 Y140.613 E42.8735
G1 X77.725 Y139.675 E42.89037
G1 X77.409 Y139.015 E42.90138
G1 X77.084 Y138.043 E42.9168
G1 X76.919 Y136.837 E42.93512
G1 X76.9 Y136.494 E42.94029
G1 X76.901 Y53.494 E44.18931
G1 X77.004 Y52.393 E44.20595
G1 X77.164 Y51.69 E44.2168
G1 X77.505 Y50.742 E44.23196
G1 X78.132 Y49.678 E44.25055
G1 X78.582 Y49.114 E44.2614
G1 X79.369 Y48.354 E44.27787
G1 X80.327 Y47.726 E44.29511
G1 X80.981 Y47.411 E44.30603
G1 X81.954 Y47.085 E44.32147
G1 X83.164 Y46.919 E44.33985
G1 X83.509 Y46.9 E44.34505
G1 X146.532 Y46.902 E45.29345
G1 X147.621 Y47.006 E45.30991
