;START_OF_HEADER
;HEADER_VERSION:0.1
;FLAVOR:Griffin
;GENERATOR.NAME:Cura_SteamEngine
;GENERATOR.VERSION:5.4.0-beta.1
;GENERATOR.BUILD_DATE:2023-06-15
;TARGET_MACHINE.NAME:Ultimaker S3
;EXTRUDER_TRAIN.0.INITIAL_TEMPERATURE:200
;EXTRUDER_TRAIN.0.MATERIAL.VOLUME_USED:9797
;EXTRUDER_TRAIN.0.MATERIAL.GUID:506c9f0d-e3aa-4bd4-b2d2-23e2425b1aa9
;EXTRUDER_TRAIN.0.NOZZLE.DIAMETER:0.4
;EXTRUDER_TRAIN.0.NOZZLE.NAME:AA 0.4
;BUILD_PLATE.INITIAL_TEMPERATURE:60
;PRINT.TIME:9366
;PRINT.GROUPS:1
;PRINT.SIZE.MIN.X:76.82
;PRINT.SIZE.MIN.Y:46.8
;PRINT.SIZE.MIN.Z:0.2
;PRINT.SIZE.MAX.X:153.18
;PRINT.SIZE.MAX.Y:143.2
;PRINT.SIZE.MAX.Z:30.5
;SLICE_UUID:a2a81397-0e76-48d2-be27-d5aaca16c575
;END_OF_HEADER
;Generated with Cura_SteamEngine 5.4.0-beta.1
T0
M82 ;absolute extrusion mode

G92 E0
M109 S200
G280 S1
G0 Z20.001
G1 F2700 E-6.5
;LAYER_COUNT:304
;LAYER:0
M106 S255
M204 S1000
M205 X30 Y30
G0 F9000 X150.456 Y141.911 Z0.2
;TYPE:SKIRT
G1 F2700 E0
G1 F900 X149.708 Y142.384 E0.0111
G1 X148.754 Y142.832 E0.02432
G1 X147.605 Y143.109 E0.03914
G1 X146.89 Y143.19 E0.04816
G1 X146.217 Y143.2 E0.0566
G1 X84.071 Y143.199 E0.83594
G1 X83.242 Y143.187 E0.84633
G1 X82.321 Y143.083 E0.85796
G1 X81.62 Y142.934 E0.86694
G1 X80.868 Y142.661 E0.87698
G1 X80.258 Y142.362 E0.88549
G1 X79.612 Y141.956 E0.89506
G1 X79.098 Y141.555 E0.90324
G1 X78.476 Y140.932 E0.91428
G1 X78.107 Y140.473 E0.92166
G1 X77.637 Y139.731 E0.93268
G1 X77.269 Y138.946 E0.94355
G1 X77.102 Y138.425 E0.95041
G1 X76.909 Y137.575 E0.96134
G1 X76.83 Y136.917 E0.96965
G1 X76.82 Y136.284 E0.97759
G1 X76.82 Y53.793 E2.01206
G1 X76.83 Y53.091 E2.02086
G1 X76.904 Y52.397 E2.02962
G1 X77.114 Y51.524 E2.04088
G1 X77.405 Y50.723 E2.05156
G1 X77.656 Y50.237 E2.05842
G1 X78.066 Y49.587 E2.06806
G1 X78.465 Y49.077 E2.07618
G1 X79.075 Y48.466 E2.08701
G1 X79.543 Y48.088 E2.09455
G1 X80.291 Y47.615 E2.10565
G1 X81.249 Y47.166 E2.11892
G1 X82.405 Y46.887 E2.13383
G1 X83.116 Y46.809 E2.1428
G1 X83.786 Y46.8 E2.1512
G1 X146.162 Y46.801 E2.93342
G1 X146.87 Y46.811 E2.9423
G1 X147.371 Y46.858 E2.94861
G1 X147.873 Y46.945 E2.955
G1 X148.384 Y47.078 E2.96162
G1 X149.104 Y47.33 E2.97119
G1 X149.753 Y47.643 E2.98022
G1 X150.391 Y48.045 E2.98968
G1 X150.946 Y48.487 E2.99858
G1 X151.484 Y49.024 E3.00811
G1 X151.893 Y49.526 E3.01623
G1 X152.365 Y50.275 E3.02733
G1 X152.811 Y51.224 E3.04048
G1 X153.087 Y52.361 E3.05515
G1 X153.169 Y53.071 E3.06412
G1 X153.18 Y53.761 E3.07277
G1 X153.179 Y135.945 E4.10339
G1 X153.168 Y136.765 E4.11367
G1 X153.064 Y137.694 E4.1254
G1 X152.912 Y138.406 E4.13453
G1 X152.64 Y139.153 E4.14449
G1 X152.344 Y139.757 E4.15293
G1 X151.939 Y140.403 E4.16249
G1 X151.536 Y140.92 E4.17071
G1 X150.924 Y141.533 E4.18157
G1 X150.456 Y141.911 E4.18912
G1 F2700 E-2.31088
;MESH:laser_module_power_control_mount_v2.1.stl
G0 F9000 X149.069 Y139.949
G0 X148.424 Y138.928
G0 X148.852 Y136.851
G0 X147.365 Y137.578
G0 X144.448 Y137.514
G0 X144.892 Y136.976
;TYPE:WALL-OUTER
G1 F2700 E4.18912
G1 F900 X144.37 Y136.547 E4.19844
G1 X144.137 Y136.247 E4.20368
G1 X143.852 Y135.626 E4.2131
G1 X143.771 Y134.884 E4.2234
G1 X143.897 Y134.242 E4.23243
G1 X144.238 Y133.607 E4.24237
G1 X144.747 Y133.119 E4.25209
G1 X145.359 Y132.815 E4.26152
G1 X145.688 Y132.734 E4.26619
G1 X146.435 Y132.734 E4.2765
G1 X146.782 Y132.823 E4.28144
G1 X147.375 Y133.115 E4.29056
G1 X147.883 Y133.6 E4.30025
G1 X148.228 Y134.239 E4.31026
G1 X148.353 Y134.902 E4.31957
G1 X148.273 Y135.606 E4.32935
G1 X148.009 Y136.209 E4.33843
G1 X147.753 Y136.547 E4.34427
G1 X147.245 Y136.966 E4.35336
G1 X146.855 Y137.144 E4.35927
G1 X146.269 Y137.284 E4.36758
G1 X145.548 Y137.238 E4.37755
G1 X144.892 Y136.976 E4.38729
G0 F9000 X144.738 Y136.849
G1 F2700 E-2.11271
G0 F9000 X144.294 Y137.387
G0 X143.272 Y136.58
G0 X136.039 Y136.729
G0 X134.423 Y137.734
G0 X132.769 Y137.929
G0 X132.822 Y137.238
G1 F2700 E4.38729
G1 F900 X132.168 Y136.977 E4.39701
G1 X131.637 Y136.539 E4.4065
G1 X131.401 Y136.23 E4.41187
G1 X131.127 Y135.626 E4.42101
G1 X131.045 Y134.894 E4.43117
G1 X131.168 Y134.25 E4.44022
G1 X131.334 Y133.883 E4.44578
G1 X131.757 Y133.334 E4.45534
G1 X132.301 Y132.952 E4.46451
G1 X132.988 Y132.732 E4.47446
G1 X133.69 Y132.733 E4.48414
G1 X134.349 Y132.941 E4.49367
G1 X134.916 Y133.333 E4.50318
G1 X135.339 Y133.88 E4.51272
G1 X135.493 Y134.217 E4.51783
G1 X135.63 Y134.892 E4.52733
G1 X135.545 Y135.624 E4.5375
G1 X135.272 Y136.236 E4.54674
G1 X134.809 Y136.76 E4.55639
G1 X134.186 Y137.133 E4.5664
G1 X133.543 Y137.284 E4.57551
G1 X132.822 Y137.238 E4.58548
G0 F9000 X132.637 Y137.164
G1 F2700 E-1.91452
G0 F9000 X132.375 Y137.813
G0 X130.579 Y136.597
G0 X109.472 Y133.308
G0 X108.296 Y134.266
G0 X108.296 Y133.564
G1 F2700 E4.58548
G1 F900 X95.95 Y133.561 E4.75579
G1 X95.748 Y133.317 E4.76016
G1 X95.748 Y131.261 E4.78852
G1 X82.152 Y131.261 E4.97607
G1 X81.972 Y131.005 E4.98038
G1 X81.97 Y58.9 E5.97503
G1 X82.199 Y58.738 E5.9789
G1 X95.748 Y58.738 E6.1658
G1 X95.748 Y56.639 E6.19475
G1 X96.004 Y56.435 E6.19927
G1 X108.35 Y56.438 E6.36957
G1 X108.552 Y56.682 E6.37394
G1 X108.552 Y58.738 E6.4023
G1 X122.116 Y58.74 E6.58941
G1 X122.233 Y58.806 E6.59127
G1 X122.328 Y58.994 E6.59417
G1 X122.331 Y131.069 E7.5884
G1 X122.073 Y131.259 E7.59282
G1 X108.552 Y131.261 E7.77934
G1 X108.552 Y133.36 E7.80829
G1 X108.296 Y133.564 E7.81281
G0 F9000 X108.096 Y133.564
G1 F2700 E1.31281
G0 F9000 X108.096 Y134.266
G0 X95.315 Y134.204
G0 X94.867 Y133.482
G0 X94.856 Y132.153
G0 X81.75 Y132.033
G0 X81.101 Y136.744
G0 X81.614 Y138.03
G0 X82.325 Y138.437
G0 X82.285 Y136.368
G0 X83.96 Y134.759
G0 X86.184 Y134.949
G0 X87.41 Y136.317
G0 X87.525 Y137.992
G0 X86.575 Y139.162
G0 X85.898 Y138.929
G1 F2700 E7.81281
G1 F738.5 X85.287 Y139.244 E7.82414
G1 F703.6 X84.694 Y139.28 E7.83436
G1 F750.8 X83.905 Y139.014 E7.84789
G1 F846.2 X83.381 Y138.518 E7.85841
G1 F900 X83.198 Y138.233 E7.86308
G1 X83.009 Y137.638 E7.8717
G1 X82.993 Y137.281 E7.87662
G1 X83.116 Y136.695 E7.88488
G1 X83.427 Y136.177 E7.89322
G1 X83.724 Y135.893 E7.89889
G1 X84.252 Y135.604 E7.90719
G1 X84.879 Y135.507 E7.91594
G1 X85.2 Y135.541 E7.9204
G1 X85.756 Y135.733 E7.92851
G1 X86.253 Y136.13 E7.93728
G1 X86.586 Y136.661 E7.94593
G1 X86.726 Y137.276 E7.95463
G1 X86.644 Y137.935 E7.96379
G1 X86.35 Y138.505 E7.97264
G1 F839.6 X85.898 Y138.929 E7.98174
G0 F9000 X85.721 Y139.02
G0 X86.04 Y139.798
G1 F900 X146.818 Y139.799 E8.82014
G1 X147.806 Y139.575 E8.83411
G1 X148.563 Y139.098 E8.84646
G1 X149.078 Y138.583 E8.8565
G1 X149.458 Y137.98 E8.86634
G1 X149.695 Y137.296 E8.87632
G1 X149.779 Y136.592 E8.8861
G1 X149.779 Y53.159 E10.03701
G1 X149.556 Y52.173 E10.05096
G1 X149.078 Y51.416 E10.06331
G1 X148.563 Y50.901 E10.07335
G1 X147.96 Y50.521 E10.08318
G1 X147.268 Y50.281 E10.09329
G1 X146.809 Y50.202 E10.09971
G1 X85.853 Y50.201 E10.94056
G1 F788 X85.288 Y50.252 E10.94939
G1 F710 X85.122 Y50.245 E10.95222
G1 F713.2 X84.442 Y50.25 E10.96378
G1 F792 X84.016 Y50.201 E10.97042
G1 F900 X83.177 Y50.201 E10.982
G1 X82.194 Y50.424 E10.9959
G1 X81.436 Y50.901 E11.00826
G1 X80.921 Y51.416 E11.0183
G1 X80.443 Y52.172 E11.03064
G1 X80.22 Y53.155 E11.04455
G1 X80.22 Y136.842 E12.19896
G1 X80.442 Y137.823 E12.21283
G1 X80.921 Y138.583 E12.22523
G1 X81.436 Y139.098 E12.23527
G1 X82.039 Y139.478 E12.2451
G1 X82.723 Y139.715 E12.25509
G1 X83.429 Y139.798 E12.2649
G1 X84.096 Y139.798 E12.2741
G1 F803.9 X84.617 Y139.755 E12.28208
G1 F710 X85.308 Y139.747 E12.29388
G1 F733.3 X85.479 Y139.77 E12.29674
G1 F833.1 X86.04 Y139.798 E12.30505
G0 F9000 X86.24 Y139.798
G1 F2700 E5.80505
G0 F9000 X86.575 Y139.162
G0 X87.261 Y138.127
G0 X87.372 Y137.25
G0 X87.186 Y136.416
G0 X86.184 Y134.949
G0 X83.96 Y134.759
G0 X82.285 Y136.368
G0 X82.325 Y138.437
G0 X81.614 Y138.03
G0 X81.101 Y136.744
G0 X81.101 Y53.254
G0 X81.615 Y51.968
G0 X82.379 Y53.85
G0 X83.775 Y55.066
G0 X85.359 Y55.136
G0 X85.301 Y54.438
G1 F2700 E12.30505
G1 F900 X84.712 Y54.487 E12.31321
G1 X84.1 Y54.336 E12.3219
G1 X83.576 Y53.986 E12.33059
G1 X83.179 Y53.448 E12.33982
G1 X83.006 Y52.861 E12.34826
G1 X82.997 Y52.492 E12.35335
G1 X83.116 Y51.942 E12.36111
G1 X83.427 Y51.425 E12.36943
G1 X83.705 Y51.154 E12.37479
G1 F844 X84.426 Y50.741 E12.38694
G1 F745.4 X85.192 Y50.733 E12.39946
G1 F790 X85.785 Y51.004 E12.40958
G1 F900 X86.25 Y51.373 E12.41777
G1 X86.587 Y51.913 E12.42655
G1 X86.726 Y52.526 E12.43522
G1 X86.64 Y53.184 E12.44437
G1 X86.35 Y53.752 E12.45317
G1 X85.89 Y54.186 E12.46189
G1 X85.301 Y54.438 E12.47073
G0 F9000 X85.102 Y54.454
G1 F2700 E5.97073
G0 F9000 X85.16 Y55.153
G0 X83.571 Y55.042
G0 X82.173 Y53.175
G0 X82.289 Y51.57
G0 X81.271 Y52.512
G0 X81.107 Y58.353
G0 X82.276 Y57.857
G0 X94.856 Y57.846
G0 X95.114 Y56.175
G0 X95.833 Y55.795
G0 X108.81 Y55.799
G0 X109.19 Y56.518
G0 X109.444 Y57.846
G0 X131.279 Y57.46
G0 X133.2 Y57.986
G0 X133.151 Y57.287
G1 F2700 E12.47073
G1 F900 X132.497 Y57.135 E12.47999
G1 X131.866 Y56.76 E12.49012
G1 X131.406 Y56.239 E12.49971
G1 X131.127 Y55.627 E12.50898
G1 X131.042 Y54.894 E12.51916
G1 X131.17 Y54.238 E12.52838
G1 X131.518 Y53.596 E12.53846
G1 X132.006 Y53.127 E12.54779
G1 X132.656 Y52.805 E12.5578
G1 X133.348 Y52.707 E12.56744
G1 X134.017 Y52.806 E12.57677
G1 X134.647 Y53.114 E12.58644
G1 X135.155 Y53.597 E12.59611
G1 X135.503 Y54.239 E12.60619
G1 X135.627 Y54.885 E12.61526
G1 X135.552 Y55.602 E12.6252
G1 X135.415 Y55.965 E12.63056
G1 X135.048 Y56.526 E12.6398
G1 X134.527 Y56.959 E12.64915
G1 X133.861 Y57.232 E12.65908
G1 X133.151 Y57.287 E12.6689
G0 F9000 X132.957 Y57.242
G1 F2700 E6.1689
G0 F9000 X132.797 Y57.924
G0 X133.988 Y57.868
G0 X135.724 Y57.141
G0 X143.987 Y57.471
G0 X145.71 Y57.968
G0 X145.87 Y57.287
G1 F2700 E12.6689
G1 F900 X145.218 Y57.133 E12.67814
G1 X144.597 Y56.764 E12.68811
G1 X144.141 Y56.255 E12.69753
G1 X143.859 Y55.64 E12.70687
G1 X143.768 Y54.896 E12.71721
G1 X143.895 Y54.239 E12.72644
G1 X144.243 Y53.596 E12.73652
G1 X144.731 Y53.127 E12.74586
G1 X145.381 Y52.805 E12.75587
G1 X146.074 Y52.707 E12.76552
G1 X146.749 Y52.81 E12.77494
G1 X147.375 Y53.115 E12.78454
G1 X147.881 Y53.598 E12.79419
G1 X148.227 Y54.236 E12.80421
G1 X148.353 Y54.903 E12.81357
G1 X148.273 Y55.606 E12.82333
G1 X147.986 Y56.248 E12.83303
G1 X147.753 Y56.547 E12.83826
G1 X147.254 Y56.961 E12.8472
G1 X146.572 Y57.239 E12.85736
G1 X145.87 Y57.287 E12.86707
G0 F9000 X145.676 Y57.241
G0 X145.837 Y57.693
;TYPE:WALL-INNER
G1 F900 X145.044 Y57.5 E12.87679
G1 X144.325 Y57.065 E12.8868
G1 X143.789 Y56.456 E12.89647
G1 X143.46 Y55.725 E12.90602
G1 X143.367 Y54.858 E12.91641
G1 X143.514 Y54.103 E12.92557
G1 X143.92 Y53.352 E12.93574
G1 X144.499 Y52.796 E12.9453
G1 X145.261 Y52.418 E12.95544
G1 X146.101 Y52.303 E12.96554
G1 X146.854 Y52.418 E12.97461
G1 X147.591 Y52.775 E12.98437
G1 F864.2 X148.201 Y53.349 E12.99472
G1 F799.9 X148.586 Y54.06 E13.00544
G1 F703.6 X148.819 Y54.834 E13.01745
G1 F632.6 X148.746 Y55.688 E13.03144
G1 F688 X148.651 Y55.829 E13.03402
G1 F799.9 X148.337 Y56.448 E13.04322
G1 F864.2 X148.009 Y56.855 E13.04968
G1 F900 X147.464 Y57.307 E13.05811
G1 X146.663 Y57.633 E13.06842
G1 X145.837 Y57.693 E13.07828
G1 F2700 E6.57828
G0 F9000 X145.769 Y57.982
G0 X143.987 Y57.471
G0 X135.724 Y57.141
G0 X133.988 Y57.868
G0 X133.046 Y57.983
G0 X133.114 Y57.693
G1 F2700 E13.07828
G1 F900 X132.324 Y57.503 E13.08796
G1 X131.589 Y57.055 E13.09822
G1 X131.053 Y56.439 E13.10794
G1 X130.738 Y55.73 E13.11719
G1 X130.638 Y54.878 E13.12741
G1 X130.788 Y54.101 E13.13683
G1 X131.194 Y53.353 E13.14697
G1 X131.774 Y52.796 E13.15655
G1 X132.535 Y52.419 E13.16667
G1 X133.352 Y52.3 E13.17651
G1 X134.139 Y52.42 E13.18599
G1 X134.878 Y52.781 E13.19579
G1 X135.477 Y53.351 E13.20564
G1 X135.884 Y54.101 E13.21581
G1 X136.034 Y54.877 E13.22522
G1 X135.941 Y55.696 E13.23504
G1 X135.75 Y56.184 E13.24128
G1 X135.344 Y56.806 E13.25013
G1 X134.73 Y57.311 E13.2596
G1 X133.958 Y57.627 E13.26954
G1 X133.114 Y57.693 E13.27963
G0 F9000 X133.091 Y58.094
G1 F900 X132.204 Y57.889 E13.29047
G1 X131.349 Y57.387 E13.30229
G1 X130.73 Y56.685 E13.31344
G1 X130.349 Y55.838 E13.3245
G1 X130.233 Y54.865 E13.33617
G1 X130.409 Y53.96 E13.34716
G1 X130.872 Y53.108 E13.35871
G1 X131.541 Y52.464 E13.36977
G1 X132.412 Y52.033 E13.38135
G1 X133.353 Y51.894 E13.39268
G1 X134.261 Y52.035 E13.40363
G1 X135.11 Y52.449 E13.41488
G1 X135.799 Y53.105 E13.42622
G1 X136.264 Y53.962 E13.43783
G1 X136.437 Y54.867 E13.44881
G1 X136.341 Y55.755 E13.45945
G1 X136.11 Y56.362 E13.46719
G1 X135.645 Y57.068 E13.47726
G1 X134.947 Y57.65 E13.48808
G1 X134.078 Y58.015 E13.49931
G1 X133.091 Y58.094 E13.51111
G1 F2700 E7.01111
G0 F9000 X132.833 Y131.835
G0 X131.306 Y132.869
G0 X130.768 Y133.573
G0 X130.397 Y134.871
G0 X130.503 Y135.793
G0 X130.857 Y136.577
G0 X131.715 Y137.428
G0 X132.709 Y137.925
G0 X132.731 Y137.633
G1 F2700 E13.51111
G1 F900 X131.965 Y137.327 E13.52094
G1 X131.383 Y136.848 E13.52992
G1 X131.068 Y136.465 E13.53582
G1 X130.736 Y135.733 E13.5454
G1 X130.637 Y134.877 E13.55567
G1 X130.786 Y134.132 E13.56472
G1 X131.004 Y133.656 E13.57095
G1 X131.477 Y133.039 E13.58022
G1 X132.13 Y132.586 E13.58968
G1 X132.91 Y132.333 E13.59945
G1 X133.731 Y132.328 E13.60923
G1 X134.51 Y132.569 E13.61895
G1 X135.203 Y133.045 E13.62896
G1 X135.679 Y133.67 E13.63832
G1 X135.873 Y134.092 E13.64386
G1 X136.035 Y134.878 E13.65342
G1 X135.936 Y135.73 E13.66364
G1 X135.612 Y136.455 E13.6731
G1 X135.068 Y137.071 E13.68289
G1 X134.336 Y137.509 E13.69305
G1 X133.562 Y137.69 E13.70252
G1 X132.731 Y137.633 E13.71244
G0 F9000 X132.644 Y138.028
G1 F900 X131.758 Y137.676 E13.7238
G1 X131.128 Y137.156 E13.73353
G1 X130.729 Y136.684 E13.7409
G1 X130.346 Y135.841 E13.75193
G1 X130.233 Y134.862 E13.76367
G1 X130.392 Y134.056 E13.77345
G1 X130.638 Y133.476 E13.78096
G1 X131.196 Y132.746 E13.79191
G1 X131.966 Y132.216 E13.80304
G1 X132.847 Y131.935 E13.81406
G1 X133.792 Y131.928 E13.82532
G1 X134.706 Y132.212 E13.83672
G1 X135.495 Y132.769 E13.84823
G1 X135.991 Y133.416 E13.85794
G1 X136.253 Y133.967 E13.86521
G1 X136.439 Y134.855 E13.87601
G1 X136.327 Y135.837 E13.88779
G1 X135.951 Y136.676 E13.89874
G1 X135.324 Y137.385 E13.91002
G1 X134.49 Y137.884 E13.9216
G1 X133.596 Y138.092 E13.93253
G1 X132.644 Y138.028 E13.9439
G1 F2700 E7.4439
G0 F9000 X135.393 Y137.46
G0 X143.272 Y136.58
G0 X144.498 Y137.555
G0 X144.687 Y137.326
G1 F2700 E13.9439
G1 F900 X144.057 Y136.807 E13.95362
G1 X143.749 Y136.372 E13.95997
G1 X143.461 Y135.731 E13.96834
G1 X143.364 Y134.877 E13.97858
G1 X143.522 Y134.09 E13.98815
G1 X143.917 Y133.359 E13.99805
G1 X144.498 Y132.797 E14.00768
G1 X145.219 Y132.441 E14.01726
G1 X145.657 Y132.329 E14.02264
G1 X146.471 Y132.329 E14.03234
G1 X146.958 Y132.464 E14.03836
G1 X147.608 Y132.784 E14.04699
G1 X148.205 Y133.353 E14.05682
G1 F830.9 X148.585 Y134.06 E14.0671
G1 F702 X148.819 Y134.835 E14.07915
G1 F631.3 X148.746 Y135.688 E14.09315
G1 F688 X148.65 Y135.83 E14.09575
G1 F799.9 X148.339 Y136.444 E14.10487
G1 F864.2 X148.008 Y136.856 E14.1114
G1 F900 X147.475 Y137.294 E14.11962
G1 X146.973 Y137.53 E14.12623
G1 X146.288 Y137.69 E14.13461
G1 X145.457 Y137.633 E14.14453
G1 X144.687 Y137.326 E14.15441
G1 F2700 E7.65441
G0 F9000 X144.498 Y137.555
G0 X146.33 Y138.173
G0 X148.307 Y137.233
G0 X148.009 Y138.405
G0 X146.719 Y138.918
G0 X87.172 Y138.901
G0 X87.574 Y137.039
G0 X86.769 Y135.416
G0 X84.792 Y134.622
G0 X82.764 Y135.57
G0 X82.142 Y137.791
G0 X81.271 Y137.488
G0 X81.107 Y131.611
G0 X94.856 Y132.153
G0 X95.048 Y133.886
G0 X108.375 Y134.266
G0 X108.375 Y133.966
G1 F2700 E14.15441
G1 F900 X95.901 Y133.966 E14.30302
G1 X95.534 Y133.748 E14.3081
G1 X95.348 Y133.4 E14.3128
G1 X95.348 Y131.661 E14.33352
G1 X82.219 Y131.661 E14.48993
G1 X81.956 Y131.601 E14.49314
G1 X81.69 Y131.346 E14.49753
G1 X81.57 Y131.051 E14.50133
G1 X81.57 Y58.987 E15.35985
G1 X81.667 Y58.658 E15.36394
G1 X81.976 Y58.409 E15.36867
G1 X82.261 Y58.338 E15.37216
G1 X95.348 Y58.338 E15.52807
G1 X95.348 Y56.682 E15.5478
G1 X95.426 Y56.384 E15.55147
G1 X95.564 Y56.22 E15.55403
G1 X95.925 Y56.033 E15.55887
G1 X108.399 Y56.033 E15.70748
G1 X108.766 Y56.251 E15.71256
G1 X108.952 Y56.599 E15.71726
G1 X108.952 Y58.338 E15.73798
G1 X122.155 Y58.338 E15.89527
