;START_OF_HEADER
;HEADER_VERSION:0.1
;FLAVOR:Griffin
;GENERATOR.NAME:Cura_SteamEngine
;GENERATOR.VERSION:4.13.0
;GENERATOR.BUILD_DATE:2022-01-11
;TARGET_MACHINE.NAME:Ultimaker S3
;EXTRUDER_TRAIN.0.INITIAL_TEMPERATURE:200
;EXTRUDER_TRAIN.0.MATERIAL.VOLUME_USED:10042
;EXTRUDER_TRAIN.0.MATERIAL.GUID:506c9f0d-e3aa-4bd4-b2d2-23e2425b1aa9
;EXTRUDER_TRAIN.0.NOZZLE.DIAMETER:0.4
;EXTRUDER_TRAIN.0.NOZZLE.NAME:AA 0.4
;BUILD_PLATE.TYPE:glass
;BUILD_PLATE.INITIAL_TEMPERATURE:60
;PRINT.TIME:9779
;PRINT.GROUPS:1
;PRINT.SIZE.MIN.X:76.78
;PRINT.SIZE.MIN.Y:46.78
;PRINT.SIZE.MIN.Z:0.2
;PRINT.SIZE.MAX.X:153.22
;PRINT.SIZE.MAX.Y:143.22
;PRINT.SIZE.MAX.Z:30.5
;END_OF_HEADER
;Generated with Cura_SteamEngine 4.13.0
T0
M82 ;absolute extrusion mode

G92 E0
M109 S200
G280 S1
G0 Z20.001
G1 F1500 E-6.5
;LAYER_COUNT:304
;LAYER:0
M107
M204 S625
M205 X8.33 Y8.33
G0 F6000 X150.877 Y141.581 Z0.2
M204 S500
M205 X5 Y5
;TYPE:SKIRT
G1 F1500 E0
G1 F1200 X150.167 Y142.118 E0.0134
G1 X149.303 Y142.594 E0.02824
G1 X148.611 Y142.868 E0.03944
G1 X147.716 Y143.098 E0.05335
G1 X146.828 Y143.199 E0.0668
G1 X145.829 Y143.22 E0.08183
G1 X84.137 Y143.219 E1.0102
G1 X83.119 Y143.196 E1.02552
G1 X82.126 Y143.066 E1.0406
G1 X81.175 Y142.792 E1.05549
G1 X80.25 Y142.367 E1.07081
G1 X79.505 Y141.887 E1.08414
G1 X78.879 Y141.362 E1.09644
G1 X78.258 Y140.685 E1.11026
G1 X77.734 Y139.929 E1.12411
G1 X77.312 Y139.09 E1.13824
G1 X76.99 Y138.111 E1.15375
G1 X76.824 Y137.162 E1.16824
G1 X76.78 Y135.834 E1.18824
G1 X76.78 Y54.162 E2.41728
G1 X76.802 Y53.151 E2.43249
G1 X76.931 Y52.136 E2.44789
G1 X77.208 Y51.176 E2.46293
G1 X77.642 Y50.237 E2.47849
G1 X78.075 Y49.556 E2.49064
G1 X78.645 Y48.872 E2.50404
G1 X79.312 Y48.26 E2.51766
G1 X80.072 Y47.734 E2.53157
G1 X80.908 Y47.313 E2.54565
G1 X81.763 Y47.022 E2.55924
G1 X82.611 Y46.851 E2.57226
G1 X83.479 Y46.789 E2.58536
G1 X84.171 Y46.78 E2.59577
G1 X145.863 Y46.781 E3.52414
G1 X146.882 Y46.804 E3.53948
G1 X147.874 Y46.934 E3.55454
G1 X148.825 Y47.208 E3.56943
G1 X149.75 Y47.633 E3.58475
G1 X150.452 Y48.081 E3.59728
G1 X151.126 Y48.644 E3.61049
G1 X151.723 Y49.291 E3.62374
G1 X152.269 Y50.076 E3.63813
G1 X152.683 Y50.899 E3.652
G1 X152.983 Y51.78 E3.666
G1 X153.148 Y52.599 E3.67857
G1 X153.211 Y53.459 E3.69155
G1 X153.22 Y54.18 E3.7024
G1 X153.219 Y135.862 E4.93159
G1 X153.191 Y136.959 E4.9481
G1 X153.076 Y137.825 E4.96125
G1 X152.889 Y138.546 E4.97246
G1 X152.595 Y139.302 E4.98466
G1 X152.112 Y140.173 E4.99965
G1 X151.54 Y140.925 E5.01387
G1 X150.877 Y141.581 E5.0279
M204 S625
M205 X8.33 Y8.33
G1 F1500 E-1.4721
;MESH:laser_module_power_control_mount_v2.stl
G0 F6000 X150.76 Y136.641
G0 X149.44 Y136.491
G0 X148.09 Y58.395
G0 X145.374 Y57.75
M204 S500
M205 X5 Y5
;TYPE:WALL-INNER
G1 F1500 E5.0279
G1 F1200 X145.788 Y57.814 E5.03421
G1 X146.214 Y57.814 E5.04062
G1 X146.651 Y57.742 E5.04728
G1 X147.031 Y57.621 E5.05328
G1 X147.434 Y57.417 E5.06008
G1 X148.02 Y56.933 E5.07152
G1 X148.294 Y56.586 E5.07817
G1 X148.51 Y56.182 E5.08507
G1 X148.647 Y55.8 E5.09117
G1 X148.725 Y55.371 E5.09774
G1 X148.741 Y54.949 E5.10409
G1 X148.592 Y54.186 E5.11579
G1 X148.415 Y53.778 E5.12248
G1 X148.156 Y53.39 E5.1295
G1 X147.884 Y53.086 E5.13564
G1 X147.26 Y52.639 E5.14719
G1 X146.76 Y52.447 E5.15525
G1 X146.027 Y52.337 E5.16641
G1 X145.555 Y52.376 E5.17353
G1 X145.195 Y52.455 E5.17908
G1 X144.719 Y52.658 E5.18687
G1 X144.117 Y53.085 E5.19797
G1 X143.819 Y53.415 E5.20466
G1 X143.565 Y53.823 E5.2119
G1 X143.311 Y54.535 E5.22327
G1 X143.26 Y54.991 E5.23018
G1 X143.275 Y55.392 E5.23622
G1 X143.361 Y55.825 E5.24286
G1 X143.498 Y56.205 E5.24894
G1 X143.734 Y56.62 E5.25612
G1 X144.222 Y57.167 E5.26715
G1 X144.603 Y57.439 E5.2742
G1 X144.994 Y57.629 E5.28074
G1 X145.374 Y57.75 E5.28674
M204 S625
M205 X8.33 Y8.33
G0 F6000 X145.484 Y57.281
M204 S500
M205 X5 Y5
;TYPE:WALL-OUTER
G1 F1200 X145.825 Y57.334 E5.29193
G1 X146.175 Y57.334 E5.2972
G1 X146.538 Y57.274 E5.30274
G1 X146.849 Y57.175 E5.30765
G1 X147.17 Y57.013 E5.31306
G1 X147.675 Y56.596 E5.32292
G1 X147.891 Y56.322 E5.32817
G1 X148.07 Y55.987 E5.33388
G1 X148.182 Y55.675 E5.33887
G1 X148.247 Y55.319 E5.34432
G1 X148.259 Y54.987 E5.34932
G1 X148.131 Y54.329 E5.3594
G1 X147.992 Y54.009 E5.36465
G1 X147.776 Y53.685 E5.37051
G1 X147.562 Y53.446 E5.37534
G1 X147.03 Y53.065 E5.38519
G1 X146.637 Y52.914 E5.39152
G1 X146.011 Y52.82 E5.40105
G1 X145.626 Y52.852 E5.40686
G1 X145.342 Y52.914 E5.41124
G1 X144.955 Y53.079 E5.41757
G1 X144.438 Y53.446 E5.42711
G1 X144.204 Y53.705 E5.43236
G1 X144 Y54.033 E5.43817
G1 X143.782 Y54.644 E5.44794
G1 X143.741 Y55.009 E5.45346
G1 X143.753 Y55.336 E5.45839
G1 X143.825 Y55.696 E5.46391
G1 X143.936 Y56.004 E5.46884
G1 X144.126 Y56.339 E5.47464
G1 X144.544 Y56.807 E5.48408
G1 X144.849 Y57.025 E5.48972
G1 X145.172 Y57.182 E5.49512
G1 X145.484 Y57.281 E5.50005
M204 S625
M205 X8.33 Y8.33
G0 F6000 X145.681 Y57.311
G0 X145.599 Y57.832
G0 X142.249 Y56.133
G0 X143.725 Y51.919
G0 X135.576 Y51.919
G0 X136.038 Y56.636
G0 X132.564 Y58.219
M204 S500
M205 X5 Y5
;TYPE:WALL-INNER
G1 F1200 X133.051 Y58.294 E5.50746
G1 X133.553 Y58.294 E5.51502
G1 X134.063 Y58.21 E5.5228
G1 X134.513 Y58.067 E5.5299
G1 X134.998 Y57.821 E5.53809
G1 X135.665 Y57.271 E5.5511
G1 X135.997 Y56.85 E5.55916
G1 X136.25 Y56.377 E5.56724
G1 X136.412 Y55.925 E5.57446
G1 X136.503 Y55.423 E5.58214
G1 X136.523 Y54.912 E5.58984
G1 X136.353 Y54.043 E5.60316
G1 X136.138 Y53.547 E5.6113
G1 X135.836 Y53.095 E5.61948
G1 X135.506 Y52.727 E5.62691
G1 X134.79 Y52.213 E5.64018
G1 X134.183 Y51.98 E5.64996
G1 X133.343 Y51.854 E5.66274
G1 X132.783 Y51.9 E5.6712
G1 X132.348 Y51.996 E5.6779
G1 X131.783 Y52.237 E5.68715
G1 X131.096 Y52.724 E5.69982
G1 X130.734 Y53.125 E5.70795
G1 X130.43 Y53.613 E5.7166
G1 X130.14 Y54.426 E5.72959
G1 X130.079 Y54.973 E5.73787
G1 X130.097 Y55.448 E5.74503
G1 X130.197 Y55.954 E5.75279
G1 X130.36 Y56.407 E5.76003
G1 X130.642 Y56.902 E5.76861
G1 X131.199 Y57.527 E5.7812
G1 X131.657 Y57.853 E5.78966
G1 X132.115 Y58.076 E5.79733
G1 X132.564 Y58.219 E5.80442
M204 S625
M205 X8.33 Y8.33
G0 F6000 X132.674 Y57.75
M204 S500
M205 X5 Y5
G1 F1200 X133.088 Y57.814 E5.81072
G1 X133.514 Y57.814 E5.81713
G1 X133.951 Y57.742 E5.8238
G1 X134.331 Y57.621 E5.8298
G1 X134.734 Y57.417 E5.8366
G1 X135.32 Y56.933 E5.84804
G1 X135.594 Y56.586 E5.85469
G1 X135.81 Y56.182 E5.86158
G1 X135.947 Y55.8 E5.86769
G1 X136.025 Y55.371 E5.87425
G1 X136.041 Y54.949 E5.88061
G1 X135.892 Y54.186 E5.89231
G1 X135.715 Y53.778 E5.899
G1 X135.456 Y53.39 E5.90602
G1 X135.184 Y53.086 E5.91216
G1 X134.56 Y52.639 E5.92371
G1 X134.06 Y52.447 E5.93177
G1 X133.327 Y52.337 E5.94292
G1 X132.855 Y52.376 E5.95005
G1 X132.495 Y52.455 E5.9556
G1 X132.019 Y52.658 E5.96338
G1 X131.417 Y53.085 E5.97449
G1 X131.119 Y53.415 E5.98118
G1 X130.865 Y53.823 E5.98841
G1 X130.611 Y54.535 E5.99979
G1 X130.56 Y54.991 E6.00669
G1 X130.575 Y55.392 E6.01273
G1 X130.661 Y55.825 E6.01938
G1 X130.798 Y56.205 E6.02545
G1 X131.034 Y56.62 E6.03264
G1 X131.522 Y57.167 E6.04367
G1 X131.903 Y57.439 E6.05071
G1 X132.294 Y57.629 E6.05726
G1 X132.674 Y57.75 E6.06326
M204 S625
M205 X8.33 Y8.33
G0 F6000 X132.784 Y57.281
M204 S500
M205 X5 Y5
;TYPE:WALL-OUTER
G1 F1200 X133.125 Y57.334 E6.06845
G1 X133.475 Y57.334 E6.07372
G1 X133.838 Y57.274 E6.07925
G1 X134.149 Y57.175 E6.08417
G1 X134.47 Y57.013 E6.08958
G1 X134.975 Y56.596 E6.09943
G1 X135.191 Y56.322 E6.10468
G1 X135.37 Y55.987 E6.1104
G1 X135.482 Y55.675 E6.11539
G1 X135.547 Y55.319 E6.12083
G1 X135.559 Y54.987 E6.12583
G1 X135.431 Y54.329 E6.13592
G1 X135.292 Y54.009 E6.14117
G1 X135.076 Y53.685 E6.14703
G1 X134.862 Y53.446 E6.15186
G1 X134.33 Y53.065 E6.1617
G1 X133.937 Y52.914 E6.16804
G1 X133.311 Y52.82 E6.17757
G1 X132.926 Y52.852 E6.18338
G1 X132.642 Y52.914 E6.18775
G1 X132.255 Y53.079 E6.19408
G1 X131.738 Y53.446 E6.20363
G1 X131.504 Y53.705 E6.20888
G1 X131.3 Y54.033 E6.21469
G1 X131.082 Y54.644 E6.22445
G1 X131.041 Y55.009 E6.22998
G1 X131.053 Y55.336 E6.2349
G1 X131.125 Y55.696 E6.24043
G1 X131.236 Y56.004 E6.24536
G1 X131.426 Y56.339 E6.25115
G1 X131.844 Y56.807 E6.26059
G1 X132.149 Y57.025 E6.26624
G1 X132.472 Y57.182 E6.27164
G1 X132.784 Y57.281 E6.27657
M204 S625
M205 X8.33 Y8.33
G0 F6000 X132.981 Y57.311
G0 X132.899 Y57.832
G0 X129.549 Y56.133
G0 X131.025 Y51.919
G0 X88.31 Y51.904
G0 X87.533 Y53.966
G0 X84.162 Y55.406
M204 S500
M205 X5 Y5
;TYPE:WALL-INNER
G1 F1200 X84.678 Y55.498 E6.28445
G1 X85.159 Y55.498 E6.29169
G1 X85.674 Y55.408 E6.29956
G1 X86.445 Y55.066 E6.31225
G1 X86.92 Y54.666 E6.3216
G1 X87.403 Y54.007 E6.33389
G1 X87.601 Y53.512 E6.34191
G1 X87.697 Y53.034 E6.34925
G1 X87.714 Y52.574 E6.35618
G1 X87.639 Y52.044 E6.36423
G1 X87.286 Y51.22 E6.37772
G1 X146.453 Y51.221 E7.26809
G1 X147.012 Y51.285 E7.27656
G1 X147.48 Y51.448 E7.28402
G1 X147.922 Y51.725 E7.29187
G1 X148.274 Y52.077 E7.29936
G1 X148.552 Y52.52 E7.30723
G1 X148.715 Y52.986 E7.31466
G1 X148.766 Y53.439 E7.32152
G1 X148.536 Y53.095 E7.32277
G1 X148.206 Y52.727 E7.32757
G1 X147.49 Y52.213 E7.34084
G1 X146.883 Y51.98 E7.35062
G1 X146.043 Y51.854 E7.3634
G1 X145.483 Y51.9 E7.37186
G1 X145.048 Y51.996 E7.37856
G1 X144.483 Y52.237 E7.38781
G1 X143.796 Y52.724 E7.40048
G1 X143.434 Y53.125 E7.40861
G1 X143.13 Y53.613 E7.41726
G1 X142.84 Y54.426 E7.43025
G1 X142.779 Y54.973 E7.43853
G1 X142.797 Y55.448 E7.44568
G1 X142.897 Y55.954 E7.45345
G1 X143.06 Y56.407 E7.46069
G1 X143.342 Y56.902 E7.46926
G1 X143.899 Y57.527 E7.48186
G1 X144.357 Y57.853 E7.49032
G1 X144.815 Y58.076 E7.49799
G1 X145.264 Y58.219 E7.50508
G1 X145.751 Y58.294 E7.51249
G1 X146.253 Y58.294 E7.52005
G1 X146.763 Y58.21 E7.52783
G1 X147.213 Y58.067 E7.53493
G1 X147.698 Y57.821 E7.54312
G1 X148.365 Y57.271 E7.55613
G1 X148.78 Y56.695 E7.56681
G1 X148.78 Y57.271 E7.57026
G1 X148.779 Y133.299 E8.71436
G1 X148.536 Y132.935 E8.72095
G1 X148.206 Y132.567 E8.72838
G1 X147.49 Y132.053 E8.74165
G1 X146.883 Y131.82 E8.75143
G1 X146.043 Y131.694 E8.76421
G1 X145.483 Y131.74 E8.77267
G1 X145.048 Y131.836 E8.77937
G1 X144.483 Y132.077 E8.78862
G1 X143.796 Y132.564 E8.80129
G1 X143.434 Y132.965 E8.80942
G1 X143.13 Y133.453 E8.81807
G1 X142.84 Y134.266 E8.83106
G1 X142.779 Y134.813 E8.83934
G1 X142.797 Y135.288 E8.8465
G1 X142.897 Y135.794 E8.85426
G1 X143.06 Y136.247 E8.8615
G1 X143.342 Y136.742 E8.87008
G1 X143.899 Y137.367 E8.88267
G1 X144.357 Y137.693 E8.89113
G1 X144.815 Y137.916 E8.8988
G1 X145.264 Y138.059 E8.90589
G1 X145.751 Y138.134 E8.91331
G1 X146.253 Y138.134 E8.92086
G1 X146.763 Y138.05 E8.92864
G1 X147.213 Y137.907 E8.93574
G1 X147.698 Y137.661 E8.94393
G1 X148.365 Y137.111 E8.95694
G1 X148.767 Y136.559 E8.96721
G1 X148.716 Y137.009 E8.9689
G1 X148.553 Y137.477 E8.97598
G1 X148.272 Y137.925 E8.98394
G1 X147.923 Y138.274 E8.99137
G1 X147.48 Y138.552 E8.99924
G1 X147.012 Y138.715 E9.0067
G1 X146.432 Y138.78 E9.01548
G1 X87.271 Y138.779 E9.90576
G1 X87.394 Y138.615 E9.90884
G1 X87.617 Y138.051 E9.91797
G1 X87.72 Y137.226 E9.93048
G1 X87.641 Y136.631 E9.93952
G1 X87.33 Y135.86 E9.95203
G1 X87.005 Y135.427 E9.96017
G1 X86.673 Y135.109 E9.96709
G1 X86.213 Y134.807 E9.97537
G1 X85.439 Y134.536 E9.98771
G1 X84.923 Y134.492 E9.99551
G1 X84.362 Y134.548 E10.00399
G1 X83.591 Y134.82 E10.01629
G1 X83.101 Y135.16 E10.02527
G1 X82.563 Y135.775 E10.03756
G1 X82.297 Y136.303 E10.04646
G1 X82.121 Y137.122 E10.05907
G1 X82.14 Y137.645 E10.06694
G1 X82.251 Y138.135 E10.0745
G1 X82.39 Y138.471 E10.07998
G1 X82.077 Y138.274 E10.0815
G1 X81.728 Y137.925 E10.08687
G1 X81.447 Y137.477 E10.09483
G1 X81.284 Y137.009 E10.10229
G1 X81.22 Y136.429 E10.11107
G1 X81.22 Y132.111 E10.17605
G1 X81.529 Y132.42 E10.18262
G1 X94.706 Y132.42 E10.38092
G1 X94.706 Y134.197 E10.40766
G1 X95.429 Y134.92 E10.42305
G1 X108.923 Y134.92 E10.62611
G1 X109.646 Y134.197 E10.6415
G1 X109.646 Y132.42 E10.66824
G1 X122.823 Y132.42 E10.86653
G1 X123.546 Y131.697 E10.88192
G1 X123.546 Y58.303 E11.98638
G1 X122.823 Y57.58 E12.00177
G1 X109.646 Y57.58 E12.20006
G1 X109.646 Y55.803 E12.2268
G1 X108.923 Y55.08 E12.24219
G1 X95.429 Y55.08 E12.44525
G1 X94.706 Y55.803 E12.46064
G1 X94.706 Y57.58 E12.48738
G1 X81.529 Y57.58 E12.68568
G1 X81.22 Y57.889 E12.69225
G1 X81.22 Y53.567 E12.75729
G1 X81.284 Y52.991 E12.76601
G1 X81.447 Y52.523 E12.77347
G1 X81.728 Y52.075 E12.78143
G1 X82.077 Y51.726 E12.78885
G1 X82.393 Y51.527 E12.79447
G1 X82.17 Y52.154 E12.80045
G1 X82.132 Y52.986 E12.81298
G1 X82.247 Y53.546 E12.82159
G1 X82.453 Y54.037 E12.8296
G1 X82.943 Y54.704 E12.84206
G1 X83.433 Y55.081 E12.85136
G1 X84.162 Y55.406 E12.86337
M204 S625
M205 X8.33 Y8.33
G0 F6000 X84.304 Y54.944
M204 S500
M205 X5 Y5
G1 F1200 X84.72 Y55.018 E12.86973
G1 X85.117 Y55.018 E12.8757
G1 X85.533 Y54.945 E12.88206
G1 X86.188 Y54.655 E12.89284
G1 X86.567 Y54.336 E12.90029
G1 X86.98 Y53.772 E12.91081
G1 X87.139 Y53.374 E12.91726
G1 X87.219 Y52.977 E12.92336
G1 X87.233 Y52.599 E12.92905
G1 X87.172 Y52.169 E12.93558
G1 X86.908 Y51.515 E12.9462
G1 X86.643 Y51.163 E12.95283
G1 X86.372 Y50.902 E12.95849
G1 X86.122 Y50.74 E12.96297
G1 X86.643 Y50.74 E12.96684
G1 X146.482 Y50.741 E13.86732
G1 X147.118 Y50.814 E13.87696
G1 X147.688 Y51.012 E13.88604
G1 X148.223 Y51.348 E13.89554
G1 X148.651 Y51.776 E13.90465
G1 X148.988 Y52.312 E13.91418
G1 X149.186 Y52.881 E13.92325
G1 X149.26 Y53.54 E13.93322
G1 X149.259 Y136.483 E15.18139
G1 X149.187 Y137.115 E15.19096
G1 X148.987 Y137.688 E15.20009
G1 X148.652 Y138.223 E15.20959
G1 X148.224 Y138.651 E15.2187
G1 X147.688 Y138.988 E15.22823
G1 X147.118 Y139.186 E15.23731
G1 X146.458 Y139.26 E15.2473
G1 X86.138 Y139.259 E16.15503
G1 X86.565 Y138.92 E16.16323
G1 X86.971 Y138.379 E16.17341
G1 X87.148 Y137.931 E16.18066
G1 X87.236 Y137.228 E16.19132
G1 X87.173 Y136.754 E16.19851
G1 X86.908 Y136.098 E16.20916
G1 X86.644 Y135.746 E16.21578
G1 X86.373 Y135.486 E16.22143
G1 X85.999 Y135.241 E16.22816
G1 X85.338 Y135.009 E16.2387
G1 X84.927 Y134.974 E16.24491
G1 X84.467 Y135.02 E16.25187
G1 X83.812 Y135.251 E16.26232
G1 X83.423 Y135.521 E16.26945
G1 X82.964 Y136.045 E16.27993
G1 X82.753 Y136.464 E16.28699
G1 X82.603 Y137.164 E16.29776
G1 X82.618 Y137.583 E16.30407
G1 X82.71 Y137.989 E16.31034
G1 X82.869 Y138.373 E16.31659
G1 X83.29 Y138.947 E16.3273
G1 X83.704 Y139.259 E16.3351
G1 X82.882 Y139.186 E16.34258
G1 X82.312 Y138.988 E16.35166
G1 X81.776 Y138.651 E16.36119
G1 X81.348 Y138.223 E16.3703
G1 X81.013 Y137.688 E16.3798
G1 X80.813 Y137.115 E16.38893
G1 X80.74 Y136.457 E16.39889
G1 X80.74 Y53.541 E17.64665
G1 X80.813 Y52.885 E17.65658
G1 X81.013 Y52.312 E17.66571
G1 X81.348 Y51.777 E17.67521
G1 X81.776 Y51.349 E17.68432
G1 X82.312 Y51.012 E17.69385
G1 X82.882 Y50.814 E17.70293
G1 X83.71 Y50.74 E17.71544
G1 X83.423 Y50.938 E17.72069
G1 X82.964 Y51.462 E17.73117
G1 X82.762 Y51.862 E17.73791
G1 X82.647 Y52.237 E17.74382
G1 X82.614 Y52.948 E17.75453
G1 X82.708 Y53.403 E17.76152
G1 X82.874 Y53.799 E17.76798
G1 X83.29 Y54.365 E17.77855
G1 X83.681 Y54.666 E17.78598
G1 X84.304 Y54.944 E17.79624
M204 S625
M205 X8.33 Y8.33
G0 F6000 X84.446 Y54.482
M204 S500
M205 X5 Y5
;TYPE:WALL-OUTER
G1 F1200 X84.762 Y54.538 E17.80107
G1 X85.075 Y54.538 E17.80578
G1 X85.392 Y54.482 E17.81063
G1 X85.931 Y54.244 E17.81949
G1 X86.214 Y54.006 E17.82506
G1 X86.557 Y53.538 E17.83379
G1 X86.677 Y53.237 E17.83867
G1 X86.741 Y52.92 E17.84353
G1 X86.752 Y52.624 E17.84799
G1 X86.705 Y52.295 E17.85299
G1 X86.486 Y51.753 E17.86179
G1 X86.283 Y51.482 E17.86688
G1 X86.072 Y51.28 E17.87128
G1 X85.785 Y51.093 E17.87643
G1 X85.236 Y50.899 E17.8852
G1 X84.931 Y50.874 E17.8898
G1 X84.573 Y50.909 E17.89521
G1 X84.033 Y51.1 E17.90383
G1 X83.745 Y51.299 E17.9091
G1 X83.365 Y51.733 E17.91778
G1 X83.209 Y52.042 E17.92299
G1 X83.124 Y52.32 E17.92737
G1 X83.096 Y52.91 E17.93625
G1 X83.169 Y53.26 E17.94163
G1 X83.295 Y53.561 E17.94654
G1 X83.637 Y54.026 E17.95523
G1 X83.929 Y54.251 E17.96078
G1 X84.446 Y54.482 E17.9693
M204 S625
M205 X8.33 Y8.33
G0 F6000 X84.643 Y54.517
G0 X84.551 Y55.037
G0 X81.918 Y54.485
G0 X81.45 Y58.57
G0 X81.45 Y131.43
G0 X92.398 Y131.776
G0 X95.186 Y133.998
M204 S500
M205 X5 Y5
;TYPE:WALL-INNER
G1 F1200 X95.628 Y134.44 E17.97871
G1 X108.724 Y134.44 E18.17578
